svg/set/LTC/T.svg

<?xml version="1.0" encoding="UTF-8" standalone="no"?>
<svg
   width="90"
   height="90"
   viewBox="0 0 90 90"
   version="1.1"
   xml:space="preserve"
   style="clip-rule:evenodd;fill-rule:evenodd;stroke-linejoin:round;stroke-miterlimit:2"
   id="svg10"
   xmlns="http://www.w3.org/2000/svg"
   xmlns:svg="http://www.w3.org/2000/svg"
   xmlns:serif="http://www.serif.com/">
    <rect
   id="Mythic"
   x="0"
   y="0"
   width="90"
   height="90"
   style="fill:none" />
    <g
   id="Mythic1"
   serif:id="Mythic">
        <path
   d="m 5.607,33.204 c 3.997,-7.03 8.903,-10.907 14.491,-11.877 5.481,-0.952 11.806,0.914 18.872,6 0.74,0.533 1.154,1.409 1.094,2.32 l -2.921,44.728 c -0.051,0.774 -0.439,1.487 -1.061,1.95 -0.623,0.464 -1.418,0.63 -2.174,0.456 C 28.077,75.436 22.363,71.252 17.606,65.439 10.745,57.054 5.853,45.308 5.266,34.657 5.238,34.15 5.356,33.645 5.607,33.204 Z m 79.131,1.453 c -0.588,10.651 -5.48,22.397 -12.34,30.782 -4.757,5.813 -10.472,9.997 -16.302,11.342 -0.756,0.174 -1.551,0.008 -2.174,-0.456 -0.623,-0.463 -1.011,-1.176 -1.061,-1.95 L 49.939,29.647 c -0.059,-0.911 0.355,-1.787 1.095,-2.32 7.066,-5.086 13.391,-6.952 18.872,-6 5.587,0.97 10.494,4.847 14.49,11.877 0.252,0.441 0.37,0.946 0.342,1.453 z"
   id="path1" />
        <path
   d="M 7.908,34.511 C 14.94,22.142 24.75,20.353 37.424,29.474 L 34.502,74.202 C 21.18,71.13 8.839,51.385 7.908,34.511 Z m 74.188,0 C 81.165,51.385 68.824,71.13 55.501,74.202 L 52.58,29.474 c 12.674,-9.121 22.484,-7.332 29.516,5.037 z"
   style="fill:#65327a"
   id="path2" />
        <path
   d="m 56.745,6.329 c 4.328,0 11.606,-3.383 14.65,-5.174 l 1.941,-1.143 1.438,1.734 c 3.697,4.457 6.22,7.517 7.733,11.895 1.868,5.405 3.307,14.032 3.208,20.277 l -0.092,5.847 -4.331,-3.93 c -1.404,-1.273 -2.451,-1.853 -3.352,-1.61 -1.116,0.301 -1.549,1.699 -1.549,2.706 0,1.918 1.146,3.603 2.485,4.891 1.375,1.323 2.995,2.277 4.162,2.434 l 3.29,0.442 -1.165,3.109 c -1.907,5.09 -4.64,10.137 -8.748,15.112 l -2.098,2.54 -2.028,-2.597 c 0,0 -3.51,-4.474 -8.251,-1.211 -0.394,0.271 -0.661,0.769 -0.845,1.336 -0.381,1.171 -0.318,2.66 0.424,4.059 0.96,1.812 2.822,2.286 5.675,2.372 l 5.163,0.156 -3.144,4.099 C 67.336,78.857 52.364,87.315 45.829,89.47 L 45,89.743 44.171,89.47 C 37.636,87.315 22.664,78.857 18.689,73.673 l -3.144,-4.099 5.163,-0.156 c 2.853,-0.086 4.715,-0.56 5.675,-2.372 0.742,-1.399 0.805,-2.888 0.424,-4.059 -0.184,-0.567 -0.451,-1.065 -0.845,-1.336 -4.741,-3.263 -8.251,1.211 -8.251,1.211 l -2.028,2.597 -2.098,-2.54 C 9.477,57.944 6.744,52.897 4.837,47.807 l -1.165,-3.109 3.29,-0.442 c 1.167,-0.157 2.787,-1.111 4.162,-2.434 1.339,-1.288 2.485,-2.973 2.485,-4.891 0,-1.007 -0.433,-2.405 -1.549,-2.706 -0.901,-0.243 -1.948,0.337 -3.352,1.61 L 4.377,39.765 4.285,33.918 C 4.186,27.673 5.625,19.046 7.493,13.641 9.006,9.263 11.529,6.203 15.226,1.746 l 1.438,-1.734 1.941,1.143 c 3.044,1.791 10.322,5.174 14.65,5.174 z"
   id="path3" />
        <path
   d="m 56.745,8.976 c 4.714,0 12.677,-3.589 15.992,-5.541 3.451,4.161 5.857,6.984 7.269,11.071 1.784,5.162 3.158,13.404 3.064,19.37 -5.871,-5.327 -9.325,-0.348 -9.325,3.055 0,5.285 5.81,9.526 8.94,9.947 -1.812,4.836 -4.408,9.63 -8.311,14.356 0,0 -5.032,-6.446 -11.836,-1.763 -2.042,1.405 -3.121,5.302 -1.26,8.814 1.372,2.588 3.858,3.655 7.934,3.778 C 65.443,76.978 51.196,84.914 45,86.957 38.804,84.914 24.557,76.978 20.788,72.063 c 4.076,-0.123 6.562,-1.19 7.934,-3.778 1.861,-3.512 0.782,-7.409 -1.26,-8.814 -6.804,-4.683 -11.836,1.763 -11.836,1.763 -3.903,-4.726 -6.499,-9.52 -8.311,-14.356 3.13,-0.421 8.94,-4.662 8.94,-9.947 0,-3.403 -3.454,-8.382 -9.325,-3.055 -0.094,-5.966 1.28,-14.208 3.064,-19.37 1.412,-4.087 3.818,-6.91 7.269,-11.071 3.315,1.952 11.278,5.541 15.992,5.541 z"
   style="fill:url(#_Linear1)"
   id="path4" />
        <path
   d="m 45,16.439 h 0.002 c 12.142,0.001 22.404,5.776 25.789,14.99 v 9.348 C 68.91,49.253 58.998,56.17 45.002,56.17 H 45 C 31.004,56.17 21.253,49.978 19.211,40.777 V 31.429 C 22.596,22.215 32.858,16.44 45,16.439 Z m 0,26.104 c 6.509,0 12.124,-2.134 16.897,-5.779 C 56.938,33.948 51.334,32.557 45,32.557 c -6.334,0 -11.938,1.391 -16.897,4.207 4.773,3.645 10.388,5.779 16.897,5.779 z"
   id="path5" />
        <path
   d="m 45.002,30.091 c -9.014,0 -18.748,2.907 -23.369,11.45 0,0 0,-5.999 0.002,-8.741 0,-0.903 0.269,-1.785 0.772,-2.534 C 27.973,21.982 34.69,18.567 45,18.567 Z m 0,0 0.002,-11.524 c 10.31,0 17.026,3.415 22.592,11.699 0.504,0.749 0.773,1.631 0.773,2.534 0.001,2.742 0.001,8.741 0.001,8.741 -4.62,-8.543 -14.354,-11.45 -23.368,-11.45 z m 0,14.909 c 8.249,0 14.337,-3.05 18.128,-7.278 0,0 3.159,3.417 3.159,5.545 0,4.568 -7.407,10.573 -21.287,10.573 z M 45,45 v 8.84 c -13.88,0 -21.287,-6.005 -21.287,-10.573 0,-2.128 3.159,-5.545 3.159,-5.545 C 30.662,41.95 36.75,45 45,45 Z"
   style="fill:#ffffff"
   id="path6" />
    </g>
    <defs
   id="defs10">
        <linearGradient
   id="_Linear1"
   x1="0"
   y1="0"
   x2="1"
   y2="0"
   gradientUnits="userSpaceOnUse"
   gradientTransform="matrix(76.1484,0,0,76.1484,6.92581,45.1959)"><stop
     offset="0"
     style="stop-color:rgb(97,44,117);stop-opacity:1"
     id="stop6" /><stop
     offset="0.3"
     style="stop-color:rgb(123,81,144);stop-opacity:1"
     id="stop7" /><stop
     offset="0.5"
     style="stop-color:rgb(191,153,195);stop-opacity:1"
     id="stop8" /><stop
     offset="0.7"
     style="stop-color:rgb(123,81,144);stop-opacity:1"
     id="stop9" /><stop
     offset="1"
     style="stop-color:rgb(97,44,117);stop-opacity:1"
     id="stop10" /></linearGradient>
    </defs>
</svg>

<?xml version="1.0" encoding="UTF-8" standalone="no"?>
<!DOCTYPE svg PUBLIC "-//W3C//DTD SVG 1.1//EN" "http://www.w3.org/Graphics/SVG/1.1/DTD/svg11.dtd">
<svg width="100%" height="100%" viewBox="0 0 90 90" version="1.1" xmlns="http://www.w3.org/2000/svg" xmlns:xlink="http://www.w3.org/1999/xlink" xml:space="preserve" xmlns:serif="http://www.serif.com/" style="fill-rule:evenodd;clip-rule:evenodd;stroke-linejoin:round;stroke-miterlimit:2;">
    <rect id="Mythic" x="0" y="0" width="90" height="90" style="fill:none;"/>
    <g id="Mythic1" serif:id="Mythic">
        <path d="M5.607,33.204C9.604,26.174 14.51,22.297 20.098,21.327C25.579,20.375 31.904,22.241 38.97,27.327C39.71,27.86 40.124,28.736 40.064,29.647L37.143,74.375C37.092,75.149 36.704,75.862 36.082,76.325C35.459,76.789 34.664,76.955 33.908,76.781C28.077,75.436 22.363,71.252 17.606,65.439C10.745,57.054 5.853,45.308 5.266,34.657C5.238,34.15 5.356,33.645 5.607,33.204ZM84.738,34.657C84.15,45.308 79.258,57.054 72.398,65.439C67.641,71.252 61.926,75.436 56.096,76.781C55.34,76.955 54.545,76.789 53.922,76.325C53.299,75.862 52.911,75.149 52.861,74.375L49.939,29.647C49.88,28.736 50.294,27.86 51.034,27.327C58.1,22.241 64.425,20.375 69.906,21.327C75.493,22.297 80.4,26.174 84.396,33.204C84.648,33.645 84.766,34.15 84.738,34.657Z"/>
        <path d="M7.908,34.511C14.94,22.142 24.75,20.353 37.424,29.474L34.502,74.202C21.18,71.13 8.839,51.385 7.908,34.511ZM82.096,34.511C81.165,51.385 68.824,71.13 55.501,74.202L52.58,29.474C65.254,20.353 75.064,22.142 82.096,34.511Z" style="fill:rgb(101,50,122);"/>
        <path d="M56.745,6.329C61.073,6.329 68.351,2.946 71.395,1.155L73.336,0.012L74.774,1.746C78.471,6.203 80.994,9.263 82.507,13.641C84.375,19.046 85.814,27.673 85.715,33.918L85.623,39.765L81.292,35.835C79.888,34.562 78.841,33.982 77.94,34.225C76.824,34.526 76.391,35.924 76.391,36.931C76.391,38.849 77.537,40.534 78.876,41.822C80.251,43.145 81.871,44.099 83.038,44.256L86.328,44.698L85.163,47.807C83.256,52.897 80.523,57.944 76.415,62.919L74.317,65.459L72.289,62.862C72.289,62.862 68.779,58.388 64.038,61.651C63.644,61.922 63.377,62.42 63.193,62.987C62.812,64.158 62.875,65.647 63.617,67.046C64.577,68.858 66.439,69.332 69.292,69.418L74.455,69.574L71.311,73.673C67.336,78.857 52.364,87.315 45.829,89.47L45,89.743L44.171,89.47C37.636,87.315 22.664,78.857 18.689,73.673L15.545,69.574L20.708,69.418C23.561,69.332 25.423,68.858 26.383,67.046C27.125,65.647 27.188,64.158 26.807,62.987C26.623,62.42 26.356,61.922 25.962,61.651C21.221,58.388 17.711,62.862 17.711,62.862L15.683,65.459L13.585,62.919C9.477,57.944 6.744,52.897 4.837,47.807L3.672,44.698L6.962,44.256C8.129,44.099 9.749,43.145 11.124,41.822C12.463,40.534 13.609,38.849 13.609,36.931C13.609,35.924 13.176,34.526 12.06,34.225C11.159,33.982 10.112,34.562 8.708,35.835L4.377,39.765L4.285,33.918C4.186,27.673 5.625,19.046 7.493,13.641C9.006,9.263 11.529,6.203 15.226,1.746L16.664,0.012L18.605,1.155C21.649,2.946 28.927,6.329 33.255,6.329L56.745,6.329Z"/>
        <path d="M56.745,8.976C61.459,8.976 69.422,5.387 72.737,3.435C76.188,7.596 78.594,10.419 80.006,14.506C81.79,19.668 83.164,27.91 83.07,33.876C77.199,28.549 73.745,33.528 73.745,36.931C73.745,42.216 79.555,46.457 82.685,46.878C80.873,51.714 78.277,56.508 74.374,61.234C74.374,61.234 69.342,54.788 62.538,59.471C60.496,60.876 59.417,64.773 61.278,68.285C62.65,70.873 65.136,71.94 69.212,72.063C65.443,76.978 51.196,84.914 45,86.957C38.804,84.914 24.557,76.978 20.788,72.063C24.864,71.94 27.35,70.873 28.722,68.285C30.583,64.773 29.504,60.876 27.462,59.471C20.658,54.788 15.626,61.234 15.626,61.234C11.723,56.508 9.127,51.714 7.315,46.878C10.445,46.457 16.255,42.216 16.255,36.931C16.255,33.528 12.801,28.549 6.93,33.876C6.836,27.91 8.21,19.668 9.994,14.506C11.406,10.419 13.812,7.596 17.263,3.435C20.578,5.387 28.541,8.976 33.255,8.976L56.745,8.976Z" style="fill:url(#_Linear1);"/>
        <path d="M45,16.439L45.002,16.439C57.144,16.44 67.406,22.215 70.791,31.429L70.791,40.777C68.91,49.253 58.998,56.17 45.002,56.17L45,56.17C31.004,56.17 21.253,49.978 19.211,40.777L19.211,31.429C22.596,22.215 32.858,16.44 45,16.439ZM45,42.543C51.509,42.543 57.124,40.409 61.897,36.764C56.938,33.948 51.334,32.557 45,32.557C38.666,32.557 33.062,33.948 28.103,36.764C32.876,40.409 38.491,42.543 45,42.543Z"/>
        <path d="M45.002,30.091C35.988,30.091 26.254,32.998 21.633,41.541C21.633,41.541 21.633,35.542 21.635,32.8C21.635,31.897 21.904,31.015 22.407,30.266C27.973,21.982 34.69,18.567 45,18.567L45.002,30.091ZM45.002,30.091L45.004,18.567C55.314,18.567 62.03,21.982 67.596,30.266C68.1,31.015 68.369,31.897 68.369,32.8C68.37,35.542 68.37,41.541 68.37,41.541C63.75,32.998 54.016,30.091 45.002,30.091ZM45.002,45C53.251,45 59.339,41.95 63.13,37.722C63.13,37.722 66.289,41.139 66.289,43.267C66.289,47.835 58.882,53.84 45.002,53.84L45.002,45ZM45,45L45,53.84C31.12,53.84 23.713,47.835 23.713,43.267C23.713,41.139 26.872,37.722 26.872,37.722C30.662,41.95 36.75,45 45,45Z" style="fill:white;"/>
    </g>
    <defs>
        <linearGradient id="_Linear1" x1="0" y1="0" x2="1" y2="0" gradientUnits="userSpaceOnUse" gradientTransform="matrix(76.1484,0,0,76.1484,6.92581,45.1959)"><stop offset="0" style="stop-color:rgb(97,44,117);stop-opacity:1"/><stop offset="0.3" style="stop-color:rgb(123,81,144);stop-opacity:1"/><stop offset="0.5" style="stop-color:rgb(191,153,195);stop-opacity:1"/><stop offset="0.7" style="stop-color:rgb(123,81,144);stop-opacity:1"/><stop offset="1" style="stop-color:rgb(97,44,117);stop-opacity:1"/></linearGradient>
    </defs>
</svg>
